!!!COM: Music21
!!!OTL: hornpipe_Gathering-Of-The-Clans--The
!!!OMV: hornpipe_Gathering-Of-The-Clans--The
**kern
*clefG2
*k[f#]
*G:
*M4/4
=1
8gL
8aJ
=
4.b
8dd
8ccL
8bJ
8aL
8gJ
=
8.eL
16dJk
12eL
12f#
12gJ
4a
8bL
8ddJ
=
8eeL
16ff#L
16ggJJ
8ddL
8bJ
8ccL
8bJ
8aL
8gJ
=
8bL
8ddJ
8ddL
8eeJ
4dd
8gL
8aJ
=
4.b
8dd
8ccL
8bJ
8aL
8gJ
!!linebreak:original
=
8.eL
16dJk
12eL
12f#
12gJ
4a
8bL
8ddJ
=
8eeL
16ff#L
16ggJJ
8ddL
8bJ
8ccL
8bJ
8aL
8gJ
=
8eL
8gJ
8.gL
16aJk
4g
4ryy
=||
8bL
8aJ
2.ryy
=
8.gL
16aJk
8bL
8ccJ
4dd
8ddL
8eeJ
!!linebreak:original
=
8.ddL
16bJk
8aL
8gJ
4gg
8eeL
8ff#J
=
8ggL
8ff#J
16eeLL
16ff#
16gg
16aaJJ
8ggL
8ff#J
8eeL
8ddJ
=
8bL
8ddJ
8eeL
8ff#J
4gg
12ddL
12ee
12ff#J
=
8ggL
8ff#J
8eeL
8ddJ
4b
12ggL
12ff#
12eeJ
=
8ddL
8bJ
8aL
8gJ
4a
8bL
8ddJ
!!linebreak:original
=
8eeL
16ff#L
16ggJJ
8ddL
8bJ
8ccL
8bJ
8aL
8gJ
=
8eL
8gJ
8.gL
16aJk
4g
4ryy
=||
*-
